icons/svg/server-error_16.svg

<?xml version="1.0" encoding="UTF-8"?>
<svg width="16px" height="16px" viewBox="0 0 16 16" version="1.1" xmlns="http://www.w3.org/2000/svg" xmlns:xlink="http://www.w3.org/1999/xlink">
    <!-- Generator: Sketch 58 (84663) - https://sketch.com -->
    <title>server-problem_16</title>
    <desc>Created with Sketch.</desc>
    <g id="New-Icon" stroke="none" stroke-width="1" fill="none" fill-rule="evenodd">
        <g id="server-problem_16" fill="#000000">
            <path d="M12.00025,0.00025 C12.89125,0.00025 13.64125,0.58725 13.89925,1.39425 L13.89925,1.39425 L15.14625,0.14625 C15.34225,-0.04875 15.65825,-0.04875 15.85425,0.14625 C16.04925,0.34225 16.04925,0.65825 15.85425,0.85425 L15.85425,0.85425 L14.00025,2.70725 L14.00025,14.00025 C14.00025,15.05425 13.18325,15.91825 12.14925,15.99525 L12.14925,15.99525 L12.00025,16.00025 L4.00025,16.00025 C3.10925,16.00025 2.35825,15.41325 2.10125,14.60625 L2.10125,14.60625 L0.85425,15.85425 C0.75625,15.95125 0.62825,16.00025 0.50025,16.00025 C0.37225,16.00025 0.24425,15.95125 0.14625,15.85425 C-0.04875,15.65825 -0.04875,15.34225 0.14625,15.14625 L0.14625,15.14625 L2.00025,13.29325 L2.00025,2.00025 C2.00025,0.94725 2.81725,0.08225 3.85125,0.00525 L3.85125,0.00525 L4.00025,0.00025 Z M13.00025,11.00025 L5.70725,11.00025 L3.00025,13.70725 L3.00025,14.00025 C3.00025,14.51325 3.38725,14.93625 3.88425,14.99325 L3.88425,14.99325 L4.00025,15.00025 L12.00025,15.00025 C12.51225,15.00025 12.93625,14.61425 12.99325,14.11725 L12.99325,14.11725 L13.00025,14.00025 L13.00025,11.00025 Z M4.29325,11.00025 L3.00025,11.00025 L3.00025,12.29325 L4.29325,11.00025 Z M13.00025,6.00025 L10.70725,6.00025 L6.70725,10.00025 L13.00025,10.00025 L13.00025,6.00025 Z M9.29325,6.00025 L3.00025,6.00025 L3.00025,10.00025 L5.29325,10.00025 L9.29325,6.00025 Z M13.00025,3.70725 L11.70725,5.00025 L13.00025,5.00025 L13.00025,3.70725 Z M12.00025,1.00025 L4.00025,1.00025 C3.48825,1.00025 3.06425,1.38725 3.00725,1.88425 L3.00725,1.88425 L3.00025,2.00025 L3.00025,5.00025 L10.29325,5.00025 L13.00025,2.29325 L13.00025,2.00025 C13.00025,1.44925 12.55125,1.00025 12.00025,1.00025 L12.00025,1.00025 Z M4.50025,2.00025 C4.77625,2.00025 5.00025,2.22425 5.00025,2.50025 C5.00025,2.77625 4.77625,3.00025 4.50025,3.00025 C4.22425,3.00025 4.00025,2.77625 4.00025,2.50025 C4.00025,2.22425 4.22425,2.00025 4.50025,2.00025 Z" id="fill"></path>
        </g>
    </g>
</svg>

<svg width="16" height="16" xmlns="http://www.w3.org/2000/svg"><path d="M12 0c.891 0 1.641.587 1.9 1.394L15.145.146a.502.502 0 01.708.708L14 2.707V14a2.002 2.002 0 01-1.85 1.995L12 16H4a1.996 1.996 0 01-1.899-1.394L.854 15.854a.502.502 0 01-.708 0 .502.502 0 010-.708L2 13.293V2C2 .947 2.817.082 3.851.005L4.001 0zm1 11H5.707L3 13.707V14a1 1 0 00.884.993L4 15h8a1 1 0 00.993-.883L13 14v-3zm-8.707 0H3v1.293L4.293 11zM13 6h-2.293l-4 4H13V6zM9.293 6H3v4h2.293l4-4zM13 3.707L11.707 5H13V3.707zM12 1H4a1 1 0 00-.993.884L3 2v3h7.293L13 2.293V2c0-.55-.449-1-1-1zM4.5 2a.5.5 0 110 1 .5.5 0 010-1z" fill="#000" fill-rule="evenodd"/></svg>
